public/images/border-blue-2.svg

<svg height="12" viewBox="0 0 712 12" width="712" xmlns="http://www.w3.org/2000/svg"><path d="m315 2.25674816v9.74325184h-712v-9.74375594c7.911111.32418841 17.264595-.65072358 23.697385-.45694809 3.204982-.63898977-8.894798-1.12745153-2.665835-1.79929597 2.17877 1.28200257 7.798822 1.62764709 12.746949 1.92635637-3.281177.25546181-6.544028.64569481-9.978879.32988769-.627236.23065319.115738.45057831-.935871.6916243 6.870988.78314801 13.164249-.90383863 20.238743.70838688 2.038278-.3992848.795378-.76605018 3.051629-1.16935799 5.471843 1.03324579 10.471087.27222439 15.803722.75465161 1.858562-.39459127 1.876887-.77711348.84521-1.14756663 2.512161-.36944739 5.344531.65206459 7.729379-.30776108 2.370382.28429346 1.383071.59708331.204471.91255518 20.585315-.29435101 34.452995.08146617 54.780792.59875957 1.589471-.47672794.410871-.91825446-2.550097-1.34100687 3.319435-.13510645 6.780327.37984019 10.08658.12437838 5.461232.55517685-2.152408 1.23607309 2.640758 1.79527296 4.986064-.96116668 10.2544-.59842432 15.663229.3027323 3.050343-.49114377.204792-.91423144 4.152749-1.40939823 2.050172.51092362-.5893 1.06878248 1.486914 1.57937085 6.01131-1.33296083 5.126878.09822875 13.458417.32351791 3.02398-.48443874.166855-.91389619 4.126707-1.40772197.961913.36944739 1.038107.74794658-.845531 1.1512544 7.100857.63228474 22.1092-.95747891 21.712797-2.49997206 10.592934.80795664-8.255666 1.39598815-1.58947 2.75241661 3.819359-.04693525 2.588033-.65575237 7.510119-1.21260547 5.306273.85388613 11.395064-.03654244 13.778305 1.68430463 4.883828-.00670503 10.446332.12437839 11.984685-1.26121696 1.948901.36274236 3.883657.7228027 5.819378 1.0831983-3.909699 1.24009611-1.576289-.9561379-5.499169.28529921 3.230058 1.6775996 19.469406.39559703 29.352479 1.52841259-1.704887-.9061854-.80856-1.6775996-6.037352-1.99206571 7.549342-1.29507739 9.254229 1.70240822 17.162038 1.88210314 4.851036-1.4824831 10.343775-.22663016 15.67641.30507907 5.998129-1.31083422 12.458247-.74660558 18.854065-.41638264 1.4541212-.99804436-5.883999-.3221769-8.036407-1.06207744 2.127332-.70335811-3.281176-1.33430184-1.615833-2.03397218 6.2804021 1.33061407 15.1253682 1.51399676 20.7769261 2.98206404 1.7428235-.44018551 4.4993203-.06436833 8.7803457-.54109628 2.2562508-1.34469464-13.3558603-.18572945-4.8706469-1.77448734-3.5370863-.89445158-6.6134704.31211935-10.1769193-.58266749 3.1590084-1.09727887 12.7273379.72280271 12.0734174-.80259261 3.7303047.79253506 7.6782613.42275242 13.6895719 1.2297033-.5134272-1.8546125 6.4154296-.0590043 11.971182-1.25719394 7.0047297 1.30547019 13.5802637.87467173 20.4435356 1.61725429.2372632.93099402-5.2934126 1.64340392-8.6903271.99905012.8072736 1.57534782 10.5106309.61820417 14.6254435.53975526.9474453-.7124099-2.1289389-1.42347879-3.7171234-1.55858523.7047167-.74627033 3.9084128-.78683579 4.0305808-1.86198805.6089113 2.04268872 6.6070406.51695815 12.720908 1.92501537-2.3128339 1.21394647-5.2422949-.14013522-7.6258577.75934514 3.7290187.08515394 7.6387175.89076382 11.12468609-.10996256 1.05128814-.4478963-1.92286069-.1847237-3.49882839-.64938258 1.5512126-.45594234 4.71697235-.25143879 3.16543824-.71509191 4.05051353-.71911494 1.69170586 1.47209029 5.61490744.17164887-1.05128814.77241996-3.14068313 1.54919819.53818237 2.2720009 5.35771157-.03151366.2179735-.76739118 4.12638632-1.40638096 3.10274674.50153657 2.02541752 1.04229759 1.48723515 1.5803766 1.87817288.06436833 3.65250292-.32318266 5.61458595.17164888 5.68981573-1.04497961-3.6788655-1.93943119.42276572-2.96731296 1.30076814.59842432 3.33229401 1.18243281 2.65265391 1.79661396 3.9479567.98865732 7.1780154-1.05436665 11.2346374.34430352 4.0688387-.57227469 2.6590838-1.08956809 5.1712445-1.64340393 5.0638653.89311058 9.7416153.27892943 14.5347819.08381293 2.9230311 1.559591 11.1259721 1.07247025 16.9521016.96787171 2.992474-.48712074-5.9036098-.8498631-.3269602-1.36480974 5.1400595 1.38190758 10.6247616.63932502 18.0075692.73353076 4.6790359.48577974-1.8964981 1.08152204 1.4872351 1.58205286 6.517665.20819131.999849-1.35810472 6.2553252-1.88847293 2.9477862.04592948 4.1527489.27088339 4.6578173.86696094 10.5170608-2.60088283 22.5904786 1.19684863 33.3833816-.3325697 4.012256 1.50595071 6.421859 1.24646588 13.86768 2.14359948 2.013522.02614964 3.281176-.91154942 7.640004-.75833939 1.063183-1.15628317-6.716028-.56791641-9.229474-1.27395652 6.781612-.75699838 12.023907.15052802 16.957567.96753645 5.499169-.43079845 2.871592-.95077387 6.248573-1.88579091 4.466528.29468626 6.966794-.37950495 9.119202.8200257 1.397859-.31346035 2.820474-.63228474 4.230229-.94809186-1.781082 1.24009611 10.112942 1.66687155 14.509705.08481869 3.703942 1.63971615 6.767145.91423143 12.406808.55785886 4.639813.78583002-.461989.27155389-2.025096.93132927 2.743315.57998547 5.204037-.0103928 7.843509.14784601 4.16593-1.11303571 1.179886-1.09593787-.435625-1.8150528 4.819207-.03654244 9.594049-.33659273 14.086939-1.73760966-1.166704-.28697547-2.300938-.32754093-3.390163-.19142873.59573-.86696094 10.990944-.48846175 15.463902-.60881712-11.599855.73587752-9.343926 2.20796782-20.546092 2.70816338 10.715101 1.87908588 11.791466-1.43789462 19.821443-1.10800693-.160105.98999832-8.363046 2.0587808-7.100535 3.03168129 2.890238-.89042857 10.52992-.77342572 12.913483-1.949824 3.216877.9547969 3.434851 1.93943119 6.267221 2.90327988-1.474054-1.6199363 4.114491-1.55590322 8.369796-2.36520087 2.102577-.62993798-4.895723-1.16399396-.422765-1.81874057 2.038277.72012069 3.089565.72012069 2.65394 1.79527295 2.947786.03017266 6.971937-.84449908 4.562011.41235962 3.307861-.03922446 6.511557-.69899984 9.728434-1.23607309.064299-.7033581-10.170489-.00771079-8.163718-1.51533777 6.062428.77275521 33.093071 2.583785 27.864279-.04693524 3.319113-.10493378 6.908925.95714366 10.054752.12974242 3.070773 1.30937237 11.29473.50554493 19.258342.25697167zm397-.53422483v10.27747667zm-896.16977 2.98407554c-4.179112-.39157401-8.024512.67184444-12.304573-.1076158 3.972712-.58635526 7.996863-.73721853 12.304573.1076158zm115.1829217 1.36447449c5.3509602-.48846175 4.2485544 1.04129184 8.9906033.36542438.9619126-.52768621-10.7401782-1.87137509-8.9906033-.36542438zm21.2704204.47270493c3.7418785-.48980276-.1800371-.9075264 1.9215747-1.38794212-3.5046153-.61552215-6.7542852-.25814382-10.0669681-.1270604.0826242.78549478 4.8378544.51494664 8.1453934 1.51500252zm111.4580829-.19109348c4.614737-1.15259541 11.4593622.71509191 9.7412937-1.24009611-2.5632783.56188188-11.0221292.03017266-9.7412937 1.24009611zm41.439399.72682572c1.063184-.23970498 2.114472-.47672794 3.16576-.71375091-6.382637-.45326032-5.357711-.26183159-8.151823-1.51902553-2.8966687.37715818-5.9222567.14784601-8.6903273.99770911 4.6909313.99938537 9.1770703 1.10029614 13.6763903 1.23506733zm48.955949-.48712074c1.787512-.80426888 9.323994-.6534056 7.401133-1.6672068-2.883487 1.05436666-11.048492.27892943-7.401133 1.6672068z" fill="#052ab5" fill-rule="evenodd" transform="matrix(-1 0 0 1 315 0)"/></svg>

<?xml version="1.0" encoding="UTF-8"?>
<svg width="712px" height="12px" viewBox="0 0 712 12" version="1.1" xmlns="http://www.w3.org/2000/svg" xmlns:xlink="http://www.w3.org/1999/xlink">
    <!-- Generator: Sketch 55.2 (78181) - https://sketchapp.com -->
    <title>Combined Shape</title>
    <desc>Created with Sketch.</desc>
    <g id="Page-1" stroke="none" stroke-width="1" fill="none" fill-rule="evenodd">
        <path d="M315,2.25674816 L315,12 L-397,12 L-397,2.25624406 C-389.088889,2.58043247 -379.735405,1.60552048 -373.302615,1.79929597 C-370.097633,1.1603062 -382.197413,0.671844443 -375.96845,2.27373675e-13 C-373.78968,1.28200257 -368.169628,1.62764709 -363.221501,1.92635637 C-366.502678,2.18181818 -369.765529,2.57205118 -373.20038,2.25624406 C-373.827616,2.48689725 -373.084642,2.70682237 -374.136251,2.94786836 C-367.265263,3.73101637 -360.972002,2.04402973 -353.897508,3.65625524 C-351.85923,3.25697044 -353.10213,2.89020506 -350.845879,2.48689725 C-345.374036,3.52014304 -340.374792,2.75912164 -335.042157,3.24154886 C-333.183595,2.84695759 -333.16527,2.46443538 -334.196947,2.09398223 C-331.684786,1.72453484 -328.852416,2.74604682 -326.467568,1.78622115 C-324.097186,2.07051461 -325.084497,2.38330446 -326.263097,2.69877633 C-305.677782,2.40442532 -291.810102,2.7802425 -271.482305,3.2975359 C-269.892834,2.82080796 -271.071434,2.37928144 -274.032402,1.95652903 C-270.712967,1.82142258 -267.252075,2.33636922 -263.945822,2.08090741 C-258.48459,2.63608426 -266.09823,3.3169805 -261.305064,3.87618037 C-256.319,2.91501369 -251.050664,3.27775605 -245.641835,4.17891267 C-242.591492,3.6877689 -245.437043,3.26468123 -241.489086,2.76951444 C-239.438914,3.28043806 -242.078386,3.83829692 -240.002172,4.34888529 C-233.990862,3.01592446 -234.875294,4.44711404 -226.543755,4.6724032 C-223.519775,4.18796446 -226.3769,3.75850701 -222.417048,3.26468123 C-221.455135,3.63412862 -221.378941,4.01262781 -223.262579,4.41593563 C-216.161722,5.04822037 -201.153379,3.45845672 -201.549782,1.91596357 C-190.956848,2.72392021 -209.805448,3.31195172 -203.139252,4.66838018 C-199.319893,4.62144493 -200.551219,4.01262781 -195.629133,3.45577471 C-190.32286,4.30966084 -184.234069,3.41923227 -181.850828,5.14007934 C-176.967,5.13337431 -171.404496,5.26445773 -169.866143,3.87886238 C-167.917242,4.24160474 -165.982486,4.60166508 -164.046765,4.96206068 C-167.956464,6.20215679 -165.623054,4.00592278 -169.545934,5.24735989 C-166.315876,6.92495949 -150.076528,5.64295692 -140.193455,6.77577248 C-141.898342,5.86958708 -141.002015,5.09817288 -146.230807,4.78370677 C-138.681465,3.48862938 -136.976578,6.48611499 -129.068769,6.66580991 C-124.217733,5.18332681 -118.724994,6.43917975 -113.392359,6.97088898 C-107.39423,5.66005476 -100.934112,6.2242834 -94.538294,6.55450634 C-93.0841728,5.55646198 -100.422293,6.23232944 -102.574701,5.4924289 C-100.447369,4.78907079 -105.855877,4.15812706 -104.190534,3.45845672 C-97.9101319,4.78907079 -89.0651658,4.97245348 -83.4136079,6.44052076 C-81.6707844,6.00033525 -78.9142876,6.37615243 -74.6332622,5.89942448 C-72.3770114,4.55472984 -87.9891225,5.71369503 -79.5039091,4.12493714 C-83.0409954,3.23048556 -86.1173795,4.43705649 -89.6808284,3.54226965 C-86.52182,2.44499078 -76.9534905,4.26507236 -77.607411,2.73967704 C-73.8771063,3.5322121 -69.9291497,3.16242946 -63.9178391,3.96938034 C-64.4312663,2.11476784 -57.5024095,3.91037604 -51.9466571,2.7121864 C-44.9419274,4.01765659 -38.3663934,3.58685813 -31.5031215,4.32944069 C-31.2658583,5.26043471 -36.7965341,5.97284461 -40.1934486,5.32849081 C-39.386175,6.90383863 -29.6828177,5.94669498 -25.5680051,5.86824607 C-24.6205598,5.15583617 -27.696944,4.44476728 -29.2851285,4.30966084 C-28.5804118,3.56339051 -25.3767157,3.52282505 -25.2545477,2.44767279 C-24.6456364,4.49036151 -18.6475071,2.96463094 -12.5336397,4.37268816 C-14.8464736,5.58663463 -17.7759346,4.23255294 -20.1594974,5.1320333 C-16.4304787,5.21718724 -12.5207799,6.02279712 -9.03481131,5.02207074 C-7.98352317,4.57417444 -10.957672,4.83734704 -12.5336397,4.37268816 C-10.9824271,3.91674582 -7.81666735,4.12124937 -9.36820146,3.65759625 C-5.31768793,2.93848131 -7.6764956,5.12968654 -3.75329402,3.82924512 C-4.80458216,4.60166508 -6.89397715,5.37844331 -3.21511165,6.10124602 C2.14259992,6.06973236 -2.99713815,5.33385484 0.911274671,4.69486506 C4.01402141,5.19640163 2.93669219,5.73716265 2.39850982,6.27524166 C4.2766827,6.33960999 6.05101274,5.952059 8.01309577,6.44689054 C13.7029115,5.40191093 4.33423027,4.50745935 8.43586149,3.47957758 C9.73662963,4.0780019 11.7681555,4.66201039 11.0885154,5.27619154 C15.0364721,6.26484886 18.2665308,4.22182489 22.3231528,5.62049506 C26.3919915,5.04822037 24.9822366,4.53092697 27.4943973,3.97709113 C32.5582626,4.87020171 37.2360126,4.25602056 42.0291792,4.06090406 C44.9522103,5.62049506 53.1551513,5.13337431 58.9812808,5.02877577 C61.9737548,4.54165503 53.077671,4.17891267 58.6543206,3.66396603 C63.7943801,5.04587361 69.2790822,4.30329105 76.6618898,4.39749679 C81.3409257,4.88327653 74.7653917,5.47901883 78.1491249,5.97954965 C84.6667899,6.18774096 79.1489739,4.62144493 84.4044501,4.09107672 C87.3522363,4.1370062 88.557199,4.36196011 89.0622674,4.95803766 C99.5793282,2.35715483 111.652746,6.15488629 122.445649,4.62546796 C126.457905,6.13141867 128.867508,5.87193384 136.313329,6.76906744 C138.326851,6.79521708 139.594505,5.85751802 143.953333,6.01072805 C145.016516,4.85444488 137.237305,5.44281164 134.723859,4.73677153 C141.505471,3.97977315 146.747766,4.88729955 151.681426,5.70430798 C157.180595,5.27350953 154.553018,4.75353411 157.929999,3.81851707 C162.396527,4.11320333 164.896793,3.43901212 167.049201,4.63854277 C168.44706,4.32508242 169.869675,4.00625803 171.27943,3.69045091 C169.498348,4.93054702 181.392372,5.35732246 185.789135,3.7752696 C189.493077,5.41498575 192.55628,4.68950103 198.195943,4.33312846 C202.835756,5.11895848 197.733954,4.60468235 196.170847,5.26445773 C198.914162,5.8444432 201.374884,5.25406493 204.014356,5.41230374 C208.180286,4.29926803 205.194242,4.31636587 203.578731,3.59725094 C208.397938,3.5607085 213.17278,3.26065821 217.66567,1.85964128 C216.498966,1.57266581 215.364732,1.53210035 214.275507,1.66821255 C214.871237,0.801251606 225.266451,1.1797508 229.739409,1.05939543 C218.139554,1.79527295 220.395483,3.26736325 209.193317,3.76755881 C219.908418,5.64664469 220.984783,2.32966419 229.01476,2.65955188 C228.854655,3.6495502 220.651714,4.71833268 221.914225,5.69123317 C224.804463,4.8008046 232.444145,4.91780745 234.827708,3.74140917 C238.044585,4.69620607 238.262559,5.68084036 241.094929,6.64468905 C239.620875,5.02475275 245.20942,5.08878583 249.464725,4.27948818 C251.567302,3.6495502 244.569002,3.11549422 249.04196,2.46074761 C251.080237,3.1808683 252.131525,3.1808683 251.6959,4.25602056 C254.643686,4.28619322 258.667837,3.41152148 256.257911,4.66838018 C259.565772,4.62915572 262.769468,3.96938034 265.986345,3.43230709 C266.050644,2.72894899 255.815856,3.4245963 257.822627,1.91696932 C263.885055,2.68972453 290.915698,4.50075432 285.686906,1.87003408 C289.006019,1.7651003 292.595831,2.82717774 295.741658,1.9997765 C298.812431,3.30914887 307.036388,2.50532143 315,2.25674817 Z M712,1.72252333 L712,12 L712,1.72252333 Z M-184.16977,4.70659887 C-188.348882,4.31502486 -192.194282,5.37844331 -196.474343,4.59898307 C-192.501631,4.01262781 -188.47748,3.86176454 -184.16977,4.70659887 Z M-68.9868483,6.07107336 C-63.6358881,5.58261161 -64.7382939,7.1123652 -59.996245,6.43649774 C-59.0343324,5.90881153 -70.7364232,4.56512265 -68.9868483,6.07107336 Z M-47.7164279,6.54377829 C-43.9745494,6.05397553 -47.896465,5.63625189 -45.7948532,5.15583617 C-49.2994685,4.54031402 -52.5491384,4.89769235 -55.8618213,5.02877577 C-55.7791971,5.81427055 -51.0239669,5.54372241 -47.7164279,6.54377829 Z M63.741655,6.35268481 C68.356392,5.2000894 75.2010172,7.06777672 73.4829487,5.1125887 C70.9196704,5.67447058 62.4608195,5.14276136 63.741655,6.35268481 Z M105.181054,7.07951053 C106.244238,6.83980555 107.295526,6.60278259 108.346814,6.36575962 C101.964177,5.9124993 102.989103,6.10392803 100.194991,4.84673409 C97.2983223,5.22389227 94.2727343,4.9945801 91.5046637,5.8444432 C96.195595,6.84382857 100.681734,6.94473934 105.181054,7.07951053 Z M154.137003,6.59238979 C155.924515,5.78812091 163.460997,5.93898419 161.538136,4.92518299 C158.654649,5.97954965 150.489644,5.20411242 154.137003,6.59238979 Z" id="Combined-Shape" fill="#052AB5" transform="translate(157.500000, 6.000000) scale(-1, 1) translate(-157.500000, -6.000000) "></path>
    </g>
</svg>
